build/img/icon-bag.svg

<svg width="20" height="18" viewBox="0 0 20 18" fill="none" xmlns="http://www.w3.org/2000/svg">
<path d="M17.4184 5.3396V4.8396C17.2723 4.8396 17.1336 4.90344 17.0386 5.01434C16.9436 5.12525 16.9018 5.27214 16.9243 5.41643L17.4184 5.3396ZM18.8334 14.4385L19.3274 14.3617L19.3274 14.3617L18.8334 14.4385ZM16.8156 16.7678V17.2678H16.816L16.8156 16.7678ZM3.18642 16.7678V16.2678H3.18636L3.18642 16.7678ZM1.16657 14.4385L0.672504 14.3617L0.672496 14.3617L1.16657 14.4385ZM2.58159 5.3396L3.07565 5.41643L3.07565 5.41638L2.58159 5.3396ZM4.60246 3.62496L4.60215 4.12496H4.60246V3.62496ZM15.3995 3.62496V4.12496H15.3996L15.3995 3.62496ZM17.4194 5.3396V5.8396C17.5654 5.8396 17.7041 5.77577 17.7991 5.66487C17.8941 5.55398 17.9359 5.4071 17.9134 5.26281L17.4194 5.3396ZM16.9243 5.41643L18.3393 14.5153L19.3274 14.3617L17.9124 5.26276L16.9243 5.41643ZM18.3393 14.5153C18.3729 14.7313 18.3589 14.952 18.2982 15.1622L19.2591 15.4394C19.36 15.0893 19.3834 14.7217 19.3274 14.3617L18.3393 14.5153ZM18.2982 15.1622C18.2376 15.3725 18.1316 15.5677 17.9872 15.7344L18.7431 16.3892C18.982 16.1134 19.1581 15.7894 19.2591 15.4394L18.2982 15.1622ZM17.9872 15.7344C17.8428 15.9011 17.6634 16.0353 17.4611 16.1275L17.8757 17.0375C18.2082 16.886 18.5042 16.6649 18.7431 16.3892L17.9872 15.7344ZM17.4611 16.1275C17.2587 16.2197 17.0383 16.2676 16.8151 16.2678L16.816 17.2678C17.1817 17.2675 17.5432 17.189 17.8757 17.0375L17.4611 16.1275ZM16.8156 16.2678H3.18642V17.2678H16.8156V16.2678ZM3.18636 16.2678C2.96303 16.2678 2.74249 16.2201 2.53992 16.128L2.12598 17.0383C2.45882 17.1896 2.82057 17.2679 3.18648 17.2678L3.18636 16.2678ZM2.53992 16.128C2.33737 16.0359 2.15777 15.9017 2.01321 15.735L1.2577 16.3901C1.49686 16.6659 1.79313 16.8869 2.12598 17.0383L2.53992 16.128ZM2.01321 15.735C1.86867 15.5683 1.76256 15.373 1.70181 15.1626L0.741055 15.44C0.842176 15.7902 1.01853 16.1143 1.2577 16.3901L2.01321 15.735ZM1.70181 15.1626C1.64107 14.9522 1.62704 14.7314 1.66063 14.5153L0.672496 14.3617C0.616523 14.7219 0.639931 15.0897 0.741055 15.44L1.70181 15.1626ZM1.66063 14.5153L3.07565 5.41643L2.08752 5.26276L0.672504 14.3617L1.66063 14.5153ZM3.07565 5.41638C3.13132 5.05823 3.31491 4.73054 3.59462 4.49322L2.94766 3.7307C2.48595 4.12244 2.18031 4.66576 2.08752 5.26281L3.07565 5.41638ZM3.59462 4.49322C3.87446 4.25578 4.23185 4.12473 4.60215 4.12496L4.60277 3.12496C3.99642 3.12459 3.40924 3.33906 2.94766 3.7307L3.59462 4.49322ZM4.60246 4.12496H15.3995V3.12496H4.60246V4.12496ZM15.3996 4.12496C15.7698 4.12492 16.127 4.25605 16.4066 4.49347L17.0538 3.73111C16.5925 3.3395 16.0056 3.12489 15.3995 3.12496L15.3996 4.12496ZM16.4066 4.49347C16.6862 4.73077 16.8697 5.05836 16.9253 5.41638L17.9134 5.26281C17.8207 4.66598 17.5152 4.12282 17.0538 3.73111L16.4066 4.49347ZM17.4194 4.8396H17.4184V5.8396H17.4194V4.8396ZM7.35168 3.69848C7.59863 2.03712 8.89729 1.21244 10.2467 1.21424C11.5989 1.21604 12.9298 2.04934 13.2218 3.71147L14.2067 3.53845C13.8184 1.3279 12.0098 0.216581 10.248 0.214237C8.48347 0.21189 6.69372 1.32355 6.36254 3.55144L7.35168 3.69848Z" fill="currentColor"/>
</svg>

<svg width="20" height="18" fill="none" xmlns="http://www.w3.org/2000/svg"><path d="M17.418 5.34v-.5a.5.5 0 00-.494.576l.494-.076zm1.415 9.099l.494-.077-.494.076zm-2.017 2.329v.5-.5zm-13.63 0v-.5.5zm-2.02-2.33l-.493-.076.494.076zM2.583 5.34l.494.076-.494-.076zm2.02-1.715v.5-.5zm10.797 0v.5-.5zm2.02 1.715v.5a.5.5 0 00.494-.577l-.494.077zm-.495.076l1.415 9.1.988-.154-1.415-9.1-.988.154zm1.415 9.1a1.5 1.5 0 01-.04.646l.96.277c.101-.35.124-.717.068-1.077l-.988.153zm-.04.646a1.51 1.51 0 01-.312.572l.756.655c.239-.276.415-.6.516-.95l-.96-.277zm-.312.572a1.55 1.55 0 01-.526.394l.415.91c.332-.152.628-.373.867-.649l-.756-.655zm-.526.394c-.202.092-.423.14-.646.14l.001 1c.366 0 .727-.079 1.06-.23l-.415-.91zm-.645.14H3.186v1h13.63v-1zm-13.63 0c-.223 0-.444-.048-.646-.14l-.414.91c.333.152.695.23 1.06.23v-1zm-.646-.14a1.542 1.542 0 01-.527-.393l-.755.655c.239.276.535.497.868.648l.414-.91zm-.527-.393a1.516 1.516 0 01-.311-.572l-.96.277c.1.35.277.674.516.95l.755-.655zm-.311-.572a1.502 1.502 0 01-.041-.648l-.989-.153c-.055.36-.032.728.07 1.078l.96-.277zm-.041-.648l1.415-9.099-.988-.153-1.415 9.099.988.153zm1.415-9.099c.055-.358.239-.685.519-.923l-.647-.762a2.517 2.517 0 00-.86 1.532l.988.153zm.519-.923c.28-.237.637-.368 1.007-.368v-1c-.606 0-1.193.214-1.654.606l.647.762zm1.007-.368H15.4v-1H4.602v1zm10.798 0c.37 0 .727.131 1.007.368l.647-.762a2.556 2.556 0 00-1.654-.606v1zm1.007.368c.28.238.463.565.518.923l.988-.153a2.516 2.516 0 00-.86-1.532l-.646.762zm1.012.347v1-1zM7.352 3.698c.247-1.66 1.545-2.486 2.895-2.484 1.352.002 2.683.835 2.975 2.497l.985-.173C13.818 1.328 12.01.217 10.248.214 8.483.212 6.694 1.324 6.363 3.551l.989.147z" fill="currentColor"/></svg>
